images/50543930.svg

<?xml version="1.0" encoding="UTF-8"?>
<svg xmlns="http://www.w3.org/2000/svg" xmlns:xlink="http://www.w3.org/1999/xlink" width="300pt" height="300pt" viewBox="0 0 300 300" version="1.1">
<defs>
<g>
<symbol overflow="visible" id="glyph0-0">
<path style="stroke:none;" d="M 0.59375 2.125 L 0.59375 -8.46875 L 6.59375 -8.46875 L 6.59375 2.125 Z M 1.265625 1.453125 L 5.9375 1.453125 L 5.9375 -7.78125 L 1.265625 -7.78125 Z M 1.265625 1.453125 "/>
</symbol>
<symbol overflow="visible" id="glyph0-1">
<path style="stroke:none;" d="M 1.171875 -8.75 L 6.203125 -8.75 L 6.203125 -7.75 L 2.359375 -7.75 L 2.359375 -5.171875 L 5.828125 -5.171875 L 5.828125 -4.171875 L 2.359375 -4.171875 L 2.359375 0 L 1.171875 0 Z M 1.171875 -8.75 "/>
</symbol>
<symbol overflow="visible" id="glyph0-2">
<path style="stroke:none;" d="M 1.171875 -8.75 L 2.765625 -8.75 L 6.65625 -1.4375 L 6.65625 -8.75 L 7.796875 -8.75 L 7.796875 0 L 6.203125 0 L 2.328125 -7.3125 L 2.328125 0 L 1.171875 0 Z M 1.171875 -8.75 "/>
</symbol>
</g>
</defs>
<g id="surface18537">
<rect x="0" y="0" width="300" height="300" style="fill:rgb(100%,100%,100%);fill-opacity:1;stroke:none;"/>
<path style="fill:none;stroke-width:1.2;stroke-linecap:butt;stroke-linejoin:miter;stroke:rgb(20%,80%,80%);stroke-opacity:1;stroke-miterlimit:10;" d="M 35.25 219.886719 L 49.878906 214.089844 "/>
<path style="fill:none;stroke-width:1.2;stroke-linecap:butt;stroke-linejoin:miter;stroke:rgb(0%,0%,0%);stroke-opacity:1;stroke-miterlimit:10;" d="M 49.878906 214.089844 L 64.511719 208.296875 "/>
<path style=" stroke:none;fill-rule:nonzero;fill:rgb(100%,100%,100%);fill-opacity:1;" d="M 28.25 212.886719 L 35.25 212.886719 L 35.25 226.886719 L 28.25 226.886719 Z M 28.25 212.886719 "/>
<g style="fill:rgb(20%,80%,80%);fill-opacity:1;">
  <use xlink:href="#glyph0-1" x="28.25" y="224.025391"/>
</g>
<path style="fill:none;stroke-width:1.2;stroke-linecap:butt;stroke-linejoin:miter;stroke:rgb(0%,0%,0%);stroke-opacity:1;stroke-miterlimit:10;" d="M 64.511719 208.296875 L 69.105469 177.160156 "/>
<path style="fill:none;stroke-width:1.2;stroke-linecap:butt;stroke-linejoin:miter;stroke:rgb(0%,0%,0%);stroke-opacity:1;stroke-miterlimit:10;" d="M 72.296875 206.261719 L 75.972656 181.351562 "/>
<path style="fill:none;stroke-width:1.2;stroke-linecap:butt;stroke-linejoin:miter;stroke:rgb(0%,0%,0%);stroke-opacity:1;stroke-miterlimit:10;" d="M 89.179688 227.839844 L 64.511719 208.296875 "/>
<path style="fill:none;stroke-width:1.2;stroke-linecap:butt;stroke-linejoin:miter;stroke:rgb(0%,0%,0%);stroke-opacity:1;stroke-miterlimit:10;" d="M 69.105469 177.160156 L 98.367188 165.566406 "/>
<path style="fill:none;stroke-width:1.2;stroke-linecap:butt;stroke-linejoin:miter;stroke:rgb(0%,0%,0%);stroke-opacity:1;stroke-miterlimit:10;" d="M 98.367188 165.566406 L 123.035156 185.113281 "/>
<path style="fill:none;stroke-width:1.2;stroke-linecap:butt;stroke-linejoin:miter;stroke:rgb(0%,0%,0%);stroke-opacity:1;stroke-miterlimit:10;" d="M 96.234375 173.328125 L 115.96875 188.964844 "/>
<path style="fill:none;stroke-width:1.2;stroke-linecap:butt;stroke-linejoin:miter;stroke:rgb(0%,0%,0%);stroke-opacity:1;stroke-miterlimit:10;" d="M 123.035156 185.113281 L 118.441406 216.25 "/>
<path style="fill:none;stroke-width:1.2;stroke-linecap:butt;stroke-linejoin:miter;stroke:rgb(0%,0%,0%);stroke-opacity:1;stroke-miterlimit:10;" d="M 123.035156 185.113281 L 152.296875 173.523438 "/>
<path style="fill:none;stroke-width:1.2;stroke-linecap:butt;stroke-linejoin:miter;stroke:rgb(0%,0%,0%);stroke-opacity:1;stroke-miterlimit:10;" d="M 118.441406 216.25 L 89.179688 227.839844 "/>
<path style="fill:none;stroke-width:1.2;stroke-linecap:butt;stroke-linejoin:miter;stroke:rgb(0%,0%,0%);stroke-opacity:1;stroke-miterlimit:10;" d="M 112.789062 210.523438 L 89.378906 219.796875 "/>
<path style="fill:none;stroke-width:1.2;stroke-linecap:butt;stroke-linejoin:miter;stroke:rgb(0%,0%,0%);stroke-opacity:1;stroke-miterlimit:10;" d="M 152.296875 173.523438 L 164.628906 183.296875 "/>
<path style="fill:none;stroke-width:1.2;stroke-linecap:butt;stroke-linejoin:miter;stroke:rgb(0%,0%,100%);stroke-opacity:1;stroke-miterlimit:10;" d="M 164.628906 183.296875 L 176.964844 193.070312 "/>
<path style="fill:none;stroke-width:1.2;stroke-linecap:butt;stroke-linejoin:miter;stroke:rgb(0%,0%,0%);stroke-opacity:1;stroke-miterlimit:10;" d="M 159.363281 169.675781 L 169.230469 177.492188 "/>
<path style="fill:none;stroke-width:1.2;stroke-linecap:butt;stroke-linejoin:miter;stroke:rgb(0%,0%,100%);stroke-opacity:1;stroke-miterlimit:10;" d="M 169.230469 177.492188 L 179.097656 185.3125 "/>
<path style="fill:none;stroke-width:1.2;stroke-linecap:butt;stroke-linejoin:miter;stroke:rgb(0%,0%,0%);stroke-opacity:1;stroke-miterlimit:10;" d="M 156.890625 142.386719 L 152.296875 173.523438 "/>
<path style="fill:none;stroke-width:1.2;stroke-linecap:butt;stroke-linejoin:miter;stroke:rgb(0%,0%,100%);stroke-opacity:1;stroke-miterlimit:10;" d="M 176.964844 193.070312 L 191.597656 187.273438 "/>
<path style="fill:none;stroke-width:1.2;stroke-linecap:butt;stroke-linejoin:miter;stroke:rgb(0%,0%,0%);stroke-opacity:1;stroke-miterlimit:10;" d="M 191.597656 187.273438 L 206.226562 181.480469 "/>
<path style=" stroke:none;fill-rule:nonzero;fill:rgb(100%,100%,100%);fill-opacity:1;" d="M 172.964844 186.070312 L 181.964844 186.070312 L 181.964844 200.070312 L 172.964844 200.070312 Z M 172.964844 186.070312 "/>
<g style="fill:rgb(0%,0%,100%);fill-opacity:1;">
  <use xlink:href="#glyph0-2" x="172.964844" y="197.208984"/>
</g>
<path style="fill:none;stroke-width:1.2;stroke-linecap:butt;stroke-linejoin:miter;stroke:rgb(0%,0%,0%);stroke-opacity:1;stroke-miterlimit:10;" d="M 206.226562 181.480469 L 218.5625 191.253906 "/>
<path style="fill:none;stroke-width:1.2;stroke-linecap:butt;stroke-linejoin:miter;stroke:rgb(0%,0%,100%);stroke-opacity:1;stroke-miterlimit:10;" d="M 218.5625 191.253906 L 230.894531 201.027344 "/>
<path style="fill:none;stroke-width:1.2;stroke-linecap:butt;stroke-linejoin:miter;stroke:rgb(0%,0%,0%);stroke-opacity:1;stroke-miterlimit:10;" d="M 213.292969 177.628906 L 223.160156 185.449219 "/>
<path style="fill:none;stroke-width:1.2;stroke-linecap:butt;stroke-linejoin:miter;stroke:rgb(0%,0%,100%);stroke-opacity:1;stroke-miterlimit:10;" d="M 223.160156 185.449219 L 233.027344 193.265625 "/>
<path style="fill:none;stroke-width:1.2;stroke-linecap:butt;stroke-linejoin:miter;stroke:rgb(0%,0%,0%);stroke-opacity:1;stroke-miterlimit:10;" d="M 210.820312 150.34375 L 206.226562 181.480469 "/>
<path style="fill:none;stroke-width:1.2;stroke-linecap:butt;stroke-linejoin:miter;stroke:rgb(0%,0%,100%);stroke-opacity:1;stroke-miterlimit:10;" d="M 230.894531 201.027344 L 245.527344 195.230469 "/>
<path style="fill:none;stroke-width:1.2;stroke-linecap:butt;stroke-linejoin:miter;stroke:rgb(0%,0%,0%);stroke-opacity:1;stroke-miterlimit:10;" d="M 245.527344 195.230469 L 260.15625 189.433594 "/>
<path style=" stroke:none;fill-rule:nonzero;fill:rgb(100%,100%,100%);fill-opacity:1;" d="M 226.894531 194.027344 L 235.894531 194.027344 L 235.894531 208.027344 L 226.894531 208.027344 Z M 226.894531 194.027344 "/>
<g style="fill:rgb(0%,0%,100%);fill-opacity:1;">
  <use xlink:href="#glyph0-2" x="226.894531" y="205.166016"/>
</g>
<path style="fill:none;stroke-width:1.2;stroke-linecap:butt;stroke-linejoin:miter;stroke:rgb(0%,0%,0%);stroke-opacity:1;stroke-miterlimit:10;" d="M 260.15625 189.433594 L 264.75 158.296875 "/>
<path style="fill:none;stroke-width:1.2;stroke-linecap:butt;stroke-linejoin:miter;stroke:rgb(0%,0%,0%);stroke-opacity:1;stroke-miterlimit:10;" d="M 253.289062 185.242188 L 256.964844 160.332031 "/>
<path style="fill:none;stroke-width:1.2;stroke-linecap:butt;stroke-linejoin:miter;stroke:rgb(0%,0%,0%);stroke-opacity:1;stroke-miterlimit:10;" d="M 264.75 158.296875 L 240.082031 138.753906 "/>
<path style="fill:none;stroke-width:1.2;stroke-linecap:butt;stroke-linejoin:miter;stroke:rgb(0%,0%,0%);stroke-opacity:1;stroke-miterlimit:10;" d="M 240.082031 138.753906 L 210.820312 150.34375 "/>
<path style="fill:none;stroke-width:1.2;stroke-linecap:butt;stroke-linejoin:miter;stroke:rgb(0%,0%,0%);stroke-opacity:1;stroke-miterlimit:10;" d="M 239.882812 146.796875 L 216.472656 156.070312 "/>
<path style="fill:none;stroke-width:1.2;stroke-linecap:butt;stroke-linejoin:miter;stroke:rgb(0%,0%,0%);stroke-opacity:1;stroke-miterlimit:10;" d="M 210.820312 150.34375 L 198.484375 140.570312 "/>
<path style="fill:none;stroke-width:1.2;stroke-linecap:butt;stroke-linejoin:miter;stroke:rgb(0%,0%,100%);stroke-opacity:1;stroke-miterlimit:10;" d="M 198.484375 140.570312 L 186.152344 130.796875 "/>
<path style="fill:none;stroke-width:1.2;stroke-linecap:butt;stroke-linejoin:miter;stroke:rgb(0%,0%,100%);stroke-opacity:1;stroke-miterlimit:10;" d="M 186.152344 130.796875 L 171.519531 136.59375 "/>
<path style="fill:none;stroke-width:1.2;stroke-linecap:butt;stroke-linejoin:miter;stroke:rgb(0%,0%,0%);stroke-opacity:1;stroke-miterlimit:10;" d="M 171.519531 136.59375 L 156.890625 142.386719 "/>
<path style="fill:none;stroke-width:1.2;stroke-linecap:butt;stroke-linejoin:miter;stroke:rgb(0%,0%,100%);stroke-opacity:1;stroke-miterlimit:10;" d="M 185.953125 138.839844 L 174.246094 143.476562 "/>
<path style="fill:none;stroke-width:1.2;stroke-linecap:butt;stroke-linejoin:miter;stroke:rgb(0%,0%,0%);stroke-opacity:1;stroke-miterlimit:10;" d="M 174.246094 143.476562 L 162.542969 148.113281 "/>
<path style=" stroke:none;fill-rule:nonzero;fill:rgb(100%,100%,100%);fill-opacity:1;" d="M 182.152344 123.796875 L 191.152344 123.796875 L 191.152344 137.796875 L 182.152344 137.796875 Z M 182.152344 123.796875 "/>
<g style="fill:rgb(0%,0%,100%);fill-opacity:1;">
  <use xlink:href="#glyph0-2" x="182.152344" y="134.935547"/>
</g>
<path style="fill:none;stroke-width:1.2;stroke-linecap:butt;stroke-linejoin:miter;stroke:rgb(0%,0%,0%);stroke-opacity:1;stroke-miterlimit:10;" d="M 156.890625 142.386719 L 132.222656 122.839844 "/>
<path style="fill:none;stroke-width:1.2;stroke-linecap:butt;stroke-linejoin:miter;stroke:rgb(0%,0%,0%);stroke-opacity:1;stroke-miterlimit:10;" d="M 132.222656 122.839844 L 136.816406 91.703125 "/>
<path style="fill:none;stroke-width:1.2;stroke-linecap:butt;stroke-linejoin:miter;stroke:rgb(0%,0%,0%);stroke-opacity:1;stroke-miterlimit:10;" d="M 125.355469 118.648438 L 129.027344 93.738281 "/>
<path style="fill:none;stroke-width:1.2;stroke-linecap:butt;stroke-linejoin:miter;stroke:rgb(0%,0%,0%);stroke-opacity:1;stroke-miterlimit:10;" d="M 102.960938 134.433594 L 132.222656 122.839844 "/>
<path style="fill:none;stroke-width:1.2;stroke-linecap:butt;stroke-linejoin:miter;stroke:rgb(0%,0%,0%);stroke-opacity:1;stroke-miterlimit:10;" d="M 136.816406 91.703125 L 112.144531 72.160156 "/>
<path style="fill:none;stroke-width:1.2;stroke-linecap:butt;stroke-linejoin:miter;stroke:rgb(0%,0%,0%);stroke-opacity:1;stroke-miterlimit:10;" d="M 112.144531 72.160156 L 97.515625 77.953125 "/>
<path style="fill:none;stroke-width:1.2;stroke-linecap:butt;stroke-linejoin:miter;stroke:rgb(0%,0%,100%);stroke-opacity:1;stroke-miterlimit:10;" d="M 97.515625 77.953125 L 82.882812 83.75 "/>
<path style="fill:none;stroke-width:1.2;stroke-linecap:butt;stroke-linejoin:miter;stroke:rgb(0%,0%,0%);stroke-opacity:1;stroke-miterlimit:10;" d="M 111.945312 80.203125 L 100.242188 84.839844 "/>
<path style="fill:none;stroke-width:1.2;stroke-linecap:butt;stroke-linejoin:miter;stroke:rgb(0%,0%,100%);stroke-opacity:1;stroke-miterlimit:10;" d="M 100.242188 84.839844 L 88.539062 89.476562 "/>
<path style="fill:none;stroke-width:1.2;stroke-linecap:butt;stroke-linejoin:miter;stroke:rgb(0%,0%,100%);stroke-opacity:1;stroke-miterlimit:10;" d="M 82.882812 83.75 L 80.589844 99.316406 "/>
<path style="fill:none;stroke-width:1.2;stroke-linecap:butt;stroke-linejoin:miter;stroke:rgb(0%,0%,0%);stroke-opacity:1;stroke-miterlimit:10;" d="M 80.589844 99.316406 L 78.292969 114.886719 "/>
<path style=" stroke:none;fill-rule:nonzero;fill:rgb(100%,100%,100%);fill-opacity:1;" d="M 78.882812 76.75 L 87.882812 76.75 L 87.882812 90.75 L 78.882812 90.75 Z M 78.882812 76.75 "/>
<g style="fill:rgb(0%,0%,100%);fill-opacity:1;">
  <use xlink:href="#glyph0-2" x="78.882812" y="87.888672"/>
</g>
<path style="fill:none;stroke-width:1.2;stroke-linecap:butt;stroke-linejoin:miter;stroke:rgb(0%,0%,0%);stroke-opacity:1;stroke-miterlimit:10;" d="M 78.292969 114.886719 L 102.960938 134.433594 "/>
<path style="fill:none;stroke-width:1.2;stroke-linecap:butt;stroke-linejoin:miter;stroke:rgb(0%,0%,0%);stroke-opacity:1;stroke-miterlimit:10;" d="M 85.355469 111.035156 L 105.09375 126.671875 "/>
</g>
</svg>

<svg xmlns="http://www.w3.org/2000/svg" xmlns:xlink="http://www.w3.org/1999/xlink" width="300pt" height="300pt" viewBox="0 0 300 300"><defs><symbol overflow="visible"><path d="M.594 2.125V-8.47h6V2.126zm.672-.672h4.671V-7.78h-4.67zm0 0"/></symbol><symbol overflow="visible" id="a"><path d="M1.172-8.75h5.03v1H2.36v2.578h3.468v1h-3.47V0H1.173zm0 0"/></symbol><symbol overflow="visible" id="b"><path d="M1.172-8.75h1.594l3.89 7.313V-8.75h1.14V0H6.204L2.328-7.313V0H1.172zm0 0"/></symbol></defs><g><path fill="#fff" d="M0 0h300v300H0z"/><path d="M35.25 219.887l14.63-5.797" stroke-width="1.2" stroke="#3cc" stroke-miterlimit="10" fill="none"/><path d="M49.88 214.09l14.632-5.793" stroke-width="1.2" stroke="#000" stroke-miterlimit="10" fill="none"/><path d="M28.25 212.887h7v14h-7zm0 0" fill="#fff"/><use xlink:href="#a" x="28.25" y="224.025" fill="#3cc"/><path d="M64.512 208.297l4.593-31.137M72.297 206.262l3.676-24.91M89.18 227.84l-24.668-19.543M69.105 177.16l29.262-11.594M98.367 165.566l24.668 19.547M96.234 173.328l19.735 15.637M123.035 185.113l-4.594 31.137M123.035 185.113l29.262-11.59M118.44 216.25l-29.26 11.59M112.79 210.523l-23.41 9.274M152.297 173.523l12.332 9.774" stroke-width="1.2" stroke="#000" stroke-miterlimit="10" fill="none"/><path d="M164.63 183.297l12.335 9.773" stroke-width="1.2" stroke="#00f" stroke-miterlimit="10" fill="none"/><path d="M159.363 169.676l9.867 7.816" stroke-width="1.2" stroke="#000" stroke-miterlimit="10" fill="none"/><path d="M169.23 177.492l9.868 7.82" stroke-width="1.2" stroke="#00f" stroke-miterlimit="10" fill="none"/><path d="M156.89 142.387l-4.593 31.136" stroke-width="1.2" stroke="#000" stroke-miterlimit="10" fill="none"/><path d="M176.965 193.07l14.633-5.797" stroke-width="1.2" stroke="#00f" stroke-miterlimit="10" fill="none"/><path d="M191.598 187.273l14.63-5.793" stroke-width="1.2" stroke="#000" stroke-miterlimit="10" fill="none"/><path d="M172.965 186.07h9v14h-9zm0 0" fill="#fff"/><use xlink:href="#b" x="172.965" y="197.209" fill="#00f"/><path d="M206.227 181.48l12.335 9.774" stroke-width="1.2" stroke="#000" stroke-miterlimit="10" fill="none"/><path d="M218.563 191.254l12.332 9.773" stroke-width="1.2" stroke="#00f" stroke-miterlimit="10" fill="none"/><path d="M213.293 177.63l9.867 7.82" stroke-width="1.2" stroke="#000" stroke-miterlimit="10" fill="none"/><path d="M223.16 185.45l9.867 7.816" stroke-width="1.2" stroke="#00f" stroke-miterlimit="10" fill="none"/><path d="M210.82 150.344l-4.593 31.136" stroke-width="1.2" stroke="#000" stroke-miterlimit="10" fill="none"/><path d="M230.895 201.027l14.632-5.797" stroke-width="1.2" stroke="#00f" stroke-miterlimit="10" fill="none"/><path d="M245.527 195.23l14.63-5.796" stroke-width="1.2" stroke="#000" stroke-miterlimit="10" fill="none"/><path d="M226.895 194.027h9v14h-9zm0 0" fill="#fff"/><use xlink:href="#b" x="226.895" y="205.166" fill="#00f"/><path d="M260.156 189.434l4.594-31.137M253.29 185.242l3.675-24.91M264.75 158.297l-24.668-19.543M240.082 138.754l-29.262 11.59M239.883 146.797l-23.41 9.273M210.82 150.344l-12.336-9.774" stroke-width="1.2" stroke="#000" stroke-miterlimit="10" fill="none"/><path d="M198.484 140.57l-12.332-9.773M186.152 130.797l-14.632 5.797" stroke-width="1.2" stroke="#00f" stroke-miterlimit="10" fill="none"/><path d="M171.52 136.594l-14.63 5.793" stroke-width="1.2" stroke="#000" stroke-miterlimit="10" fill="none"/><path d="M185.953 138.84l-11.707 4.637" stroke-width="1.2" stroke="#00f" stroke-miterlimit="10" fill="none"/><path d="M174.246 143.477l-11.703 4.636" stroke-width="1.2" stroke="#000" stroke-miterlimit="10" fill="none"/><path d="M182.152 123.797h9v14h-9zm0 0" fill="#fff"/><use xlink:href="#b" x="182.152" y="134.936" fill="#00f"/><path d="M156.89 142.387l-24.667-19.547M132.223 122.84l4.593-31.137M125.355 118.648l3.672-24.91M102.96 134.434l29.263-11.594M136.816 91.703l-24.67-19.543M112.145 72.16l-14.63 5.793" stroke-width="1.2" stroke="#000" stroke-miterlimit="10" fill="none"/><path d="M97.516 77.953L82.883 83.75" stroke-width="1.2" stroke="#00f" stroke-miterlimit="10" fill="none"/><path d="M111.945 80.203l-11.703 4.637" stroke-width="1.2" stroke="#000" stroke-miterlimit="10" fill="none"/><path d="M100.242 84.84L88.54 89.477M82.883 83.75L80.59 99.316" stroke-width="1.2" stroke="#00f" stroke-miterlimit="10" fill="none"/><path d="M80.59 99.316l-2.297 15.57" stroke-width="1.2" stroke="#000" stroke-miterlimit="10" fill="none"/><path d="M78.883 76.75h9v14h-9zm0 0" fill="#fff"/><use xlink:href="#b" x="78.883" y="87.889" fill="#00f"/><path d="M78.293 114.887l24.668 19.547M85.355 111.035l19.74 15.637" stroke-width="1.2" stroke="#000" stroke-miterlimit="10" fill="none"/></g></svg>
